X: 1
T: Woo'd and Married and A'
R: jig
B: RSCDS 16-12(I)
Z: 1997 by John Chambers <jc:trillian.mit.edu>
M: 6/8
L: 1/8
K: F
f \
| "F"c2B "C7"ABG | "Dm"F3- F2G | "F"A2B "Dm"cdA | "Am"c3- c2f \
| "Am"cdB "C7"ABG | "Dm"F3- F2G | A2d "Am"dec | "Dm"d3- d2 ||
|| c \
| "F"A2f fge | f3- f2c | "Dm"A2c cdA | "F"c3- c2f \
| "F"dcB "C"ABG | "Dm"F3- F2G | A2d "Am"dec | "Dm"d3- d2 |]
